X: 140
T: Cantantibus organis – Andantino
C: Franciszek Walczyński
%%abc-version 2.0
%%abcx-abcm2ps-target-version 5.9.1 (29 Sep 2008)
%%abc-creator hum2abc beta
%%abcx-conversion-date 2021/10/04 07:38:41
%%abc-edited-by Kamil Watkowski
%%abcx-initial-encoding-date 2021-08-09
%%humdrum-veritas 2244466787
%%humdrum-veritas-data 3683511333
%%linebreak <none>
%%barnumbers 0
L: 1/8
M: 3/4
N: Derived from pl-kozmzk--mzk-m-346--042_walczynski-franciszek--cantantibus-organis-andantino.krn
%%staves {1 2}
V: 1 clef=treble
V: 2 clef=bass
K: Bb
[V:1] [B2d2]>[A2c2][G2B2] | 
[V:2] G,,D,G,A,B,C | 
[V:1] [^F6A6] | 
[V:2] DEDA,DC | 
[V:1] GAB=Bcd & D4G2- | 
[V:2] B,^F,G,=F,E,=B,, | 
[V:1] e4z2 & G4x2 | 
[V:2] C,D,C,G,,C,2 | 
[V:1] d2>c2 BA & z6 | 
[V:2] D,^F,A,2DC | 
[V:1] G^FGABc & D4G2 | 
[V:2] B,CB,^F,G,E, | 
[V:1] dBAG^F2 & BG^F=E DC- | 
[V:2] D,4D,,2 | 
[V:1] G6 & CB,A,B,G,2 | 
[V:2] G,,6 | 
[V:1] z6 & DA,DCB,A, | 
[V:2] z6 | 
[V:1] BAG_AGF & G,A,B,2=B,2 | 
[V:2] z6 | 
[V:1] E6 & C6 | 
[V:2] C,G,,C,B,,A,,G,, | 
[V:1] DEDAG^F & C6 | 
[V:2] ^F,,4A,,2 | 
[V:1] GAGBAG & D6 | 
[V:2] B,,2>G,,2 A,,B,, | 
[V:1] A2G2^F2 & E2=E2DC | 
[V:2] C,2^C,2D,D,, | 
[V:1] [B,6G6]- | 
[V:2] G,,E,D,B,,A,,B,, | 
[V:1] [B,2G2]z2z2 | 
[V:2] G,,A,,G,,D,,!accent!G,,2- | 
[V:1] [F2d2][E2c2][D2=B2] | 
[V:2] G,,2G,,2!accent!G,,2- | 
[V:1] c4G2 & E6 | 
[V:2] G,,_A,,G,,C,,!accent!G,,2- | 
[V:1] E2D2C2 | 
[V:2] G,2F,2E,2 & G,,2G,,2!accent!G,,2- | 
[V:1] =B,6 | 
[V:2] D,6 & G,,=A,,G,,D,,!accent!G,,2- | 
[V:1] C2G,2A,2 | 
[V:2] E,6 & G,,2G,,2!accent!G,,2- | 
[V:1] !fermata!=B,6 |]  
[V:2] G,6 & !fermata![G,,6D,6] |]  


